dist/img/icons/socials/vk.svg

<svg width="18" height="19" viewBox="0 0 18 19" fill="none" xmlns="http://www.w3.org/2000/svg">
<g clip-path="url(#clip0)">
<path d="M17.8394 13.8612C17.791 13.7802 17.4918 13.1299 16.0517 11.7933C14.5441 10.3937 14.7466 10.621 16.5625 8.20091C17.6684 6.72705 18.1106 5.82699 17.9722 5.44221C17.8405 5.07543 17.0271 5.17219 17.0271 5.17219L14.3224 5.18794C14.3224 5.18794 14.1222 5.16094 13.9725 5.24982C13.8274 5.33758 13.734 5.54009 13.734 5.54009C13.734 5.54009 13.3053 6.68093 12.7338 7.65075C11.5288 9.69727 11.0462 9.80528 10.8493 9.67815C10.3914 9.38225 10.5061 8.48781 10.5061 7.85326C10.5061 5.86974 10.8065 5.0428 9.91997 4.82904C9.6252 4.75816 9.40918 4.7109 8.6565 4.70303C7.69118 4.6929 6.87325 4.7064 6.41084 4.93255C6.10257 5.08331 5.86518 5.41971 6.01031 5.43883C6.1892 5.46246 6.59423 5.54797 6.80912 5.84049C7.08702 6.21739 7.07689 7.0657 7.07689 7.0657C7.07689 7.0657 7.23665 9.40025 6.70449 9.69052C6.33884 9.88966 5.83818 9.48351 4.76372 7.626C4.21356 6.6753 3.79728 5.62335 3.79728 5.62335C3.79728 5.62335 3.7174 5.42758 3.57451 5.32295C3.40125 5.19582 3.15823 5.15531 3.15823 5.15531L0.586296 5.17106C0.586296 5.17106 0.200394 5.18231 0.0586333 5.34995C-0.0673758 5.49959 0.0485076 5.80786 0.0485076 5.80786C0.0485076 5.80786 2.0624 10.5186 4.34182 12.8936C6.43334 15.0707 8.80727 14.9278 8.80727 14.9278H9.88284C9.88284 14.9278 10.208 14.8918 10.3734 14.7129C10.5264 14.5486 10.5208 14.2404 10.5208 14.2404C10.5208 14.2404 10.4994 12.7969 11.1699 12.5842C11.8304 12.375 12.6787 13.9793 13.5776 14.597C14.2572 15.0639 14.7736 14.9615 14.7736 14.9615L17.1779 14.9278C17.1779 14.9278 18.4357 14.8502 17.8394 13.8612Z" fill="white"/>
</g>
<defs>
<clipPath id="clip0">
<rect width="18" height="18" fill="white" transform="translate(0 0.835938)"/>
</clipPath>
</defs>
</svg>

<svg width="18" height="19" fill="none" xmlns="http://www.w3.org/2000/svg"><g clip-path="url(#clip0)"><path d="M17.84 13.861c-.049-.08-.348-.731-1.788-2.068-1.508-1.4-1.305-1.172.51-3.592 1.106-1.474 1.549-2.374 1.41-2.759-.132-.367-.945-.27-.945-.27l-2.705.016s-.2-.027-.35.062c-.145.088-.238.29-.238.29s-.429 1.14-1 2.11c-1.205 2.047-1.688 2.155-1.885 2.028-.458-.296-.343-1.19-.343-1.825 0-1.983.3-2.81-.586-3.024-.295-.07-.51-.118-1.264-.126-.965-.01-1.783.003-2.245.23-.308.15-.546.487-.4.506.178.023.583.109.798.401.278.377.268 1.226.268 1.226s.16 2.334-.373 2.625c-.365.199-.866-.207-1.94-2.065-.55-.95-.967-2.003-.967-2.003s-.08-.195-.222-.3c-.174-.127-.417-.168-.417-.168l-2.572.016S.2 5.182.06 5.35c-.126.15-.01.458-.01.458s2.013 4.71 4.293 7.086c2.091 2.177 4.465 2.034 4.465 2.034h1.076s.325-.036.49-.215c.153-.164.148-.473.148-.473s-.022-1.443.649-1.656c.66-.209 1.509 1.395 2.408 2.013.68.467 1.196.364 1.196.364l2.404-.033s1.258-.078.661-1.067z" fill="#fff"/></g><defs><clipPath id="clip0"><path fill="#fff" transform="translate(0 .836)" d="M0 0h18v18H0z"/></clipPath></defs></svg>
